public/assets/pause-icon.svg

<?xml version="1.0" ?><!DOCTYPE svg  PUBLIC '-//W3C//DTD SVG 1.1//EN'  'http://www.w3.org/Graphics/SVG/1.1/DTD/svg11.dtd'><svg enable-background="new 0 0 32 32" height="32px" version="1.1" viewBox="0 0 32 32" width="32px" xml:space="preserve" xmlns="http://www.w3.org/2000/svg" xmlns:xlink="http://www.w3.org/1999/xlink"><g id="play"/><g id="stop"/><g id="pause"><g><path d="M6,4C5.45,4,5,4.45,5,5v22c0,0.55,0.45,1,1,1h3c0.55,0,1-0.45,1-1V5c0-0.55-0.45-1-1-1H6z"/><path d="M9,29H6c-1.103,0-2-0.897-2-2V5c0-1.103,0.897-2,2-2h3c1.103,0,2,0.897,2,2v22C11,28.103,10.103,29,9,29z M9,27v1V27L9,27    L9,27z M6,5v22h2.997L9,5H6z"/></g><g><path d="M23,4c-0.55,0-1,0.45-1,1v22c0,0.55,0.45,1,1,1h3c0.55,0,1-0.45,1-1V5c0-0.55-0.45-1-1-1H23z"/><path d="M26,29h-3c-1.103,0-2-0.897-2-2V5c0-1.103,0.897-2,2-2h3c1.103,0,2,0.897,2,2v22C28,28.103,27.103,29,26,29z M26,27v1V27    L26,27L26,27z M23,5v22h2.997L26,5H23z"/></g></g><g id="replay"/><g id="next"/><g id="Layer_8"/><g id="search"/><g id="list"/><g id="love"/><g id="menu"/><g id="add"/><g id="headset"/><g id="random"/><g id="music"/><g id="setting"/><g id="Layer_17"/><g id="Layer_18"/><g id="Layer_19"/><g id="Layer_20"/><g id="Layer_21"/><g id="Layer_22"/><g id="Layer_23"/><g id="Layer_24"/><g id="Layer_25"/><g id="Layer_26"/></svg>

<svg width="32" height="32" viewBox="0 0 32 32" fill="none" xmlns="http://www.w3.org/2000/svg">
<path d="M6 4C5.45 4 5 4.45 5 5V27C5 27.55 5.45 28 6 28H9C9.55 28 10 27.55 10 27V5C10 4.45 9.55 4 9 4H6Z" fill="#4C2600"/>
<path d="M9 29H6C4.897 29 4 28.103 4 27V5C4 3.897 4.897 3 6 3H9C10.103 3 11 3.897 11 5V27C11 28.103 10.103 29 9 29ZM9 27V28V27ZM6 5V27H8.997L9 5H6Z" fill="#4C2600"/>
<path d="M23 4C22.45 4 22 4.45 22 5V27C22 27.55 22.45 28 23 28H26C26.55 28 27 27.55 27 27V5C27 4.45 26.55 4 26 4H23Z" fill="#4C2600"/>
<path d="M26 29H23C21.897 29 21 28.103 21 27V5C21 3.897 21.897 3 23 3H26C27.103 3 28 3.897 28 5V27C28 28.103 27.103 29 26 29ZM26 27V28V27ZM23 5V27H25.997L26 5H23Z" fill="#4C2600"/>
</svg>
